X: 96
%
T: Ceres Green
C:
O:Scotland
B:Keith Norman MacDonald : "The Skye collection of the best reels & strathspeys extant" : 1887
Z:Ralph Palmer
R:Strathspey
M:C
L:1/8
K:A
E | A2 c>A e2 c>A | B>A B>c B2 c2 | A2 c>A e2 c>A | B>A B>c A2 z :| e2 e>c f2 f2 | e>f e>c B2 B2 |
e2 e>c f2 f2 | a>g f>g a4 | e2 e>c f2 f2 | e>f ec B2 B2 | AA B>B c>c d>d | e>d c>B A4 |]


